Numix/16/status/indicator-keyboard-Az-2.svg

<?xml version="1.0" encoding="UTF-8" standalone="no"?>
<svg
   xmlns:dc="http://purl.org/dc/elements/1.1/"
   xmlns:cc="http://creativecommons.org/ns#"
   xmlns:rdf="http://www.w3.org/1999/02/22-rdf-syntax-ns#"
   xmlns:svg="http://www.w3.org/2000/svg"
   xmlns="http://www.w3.org/2000/svg"
   xmlns:sodipodi="http://sodipodi.sourceforge.net/DTD/sodipodi-0.dtd"
   xmlns:inkscape="http://www.inkscape.org/namespaces/inkscape"
   viewBox="0 0 16 16"
   id="svg2"
   version="1.1"
   inkscape:version="0.91 r13725"
   sodipodi:docname="indicator-keyboard-Az-2.svg">
  <metadata
     id="metadata14">
    <rdf:RDF>
      <cc:Work
         rdf:about="">
        <dc:format>image/svg+xml</dc:format>
        <dc:type
           rdf:resource="http://purl.org/dc/dcmitype/StillImage" />
      </cc:Work>
    </rdf:RDF>
  </metadata>
  <defs
     id="defs12" />
  <sodipodi:namedview
     pagecolor="#ffffff"
     bordercolor="#666666"
     borderopacity="1"
     objecttolerance="10"
     gridtolerance="10"
     guidetolerance="10"
     inkscape:pageopacity="0"
     inkscape:pageshadow="2"
     inkscape:window-width="640"
     inkscape:window-height="480"
     id="namedview10"
     showgrid="false"
     inkscape:zoom="14.75"
     inkscape:cx="8"
     inkscape:cy="8"
     inkscape:window-x="65"
     inkscape:window-y="24"
     inkscape:window-maximized="0"
     inkscape:current-layer="svg2" />
  <path
     style="fill:#ececec;fill-opacity:1"
     d="M 1.5996094 0 C 0.71320937 2.9605947e-16 0 0.71320937 0 1.5996094 L 0 14.400391 C 2.9605947e-16 15.286791 0.71320937 16 1.5996094 16 L 14.400391 16 C 15.286791 16 16 15.286791 16 14.400391 L 16 1.5996094 C 16 0.71320937 15.286791 0 14.400391 0 L 1.5996094 0 z M 4.1601562 4.859375 L 4.6992188 4.859375 C 4.9212188 5.321375 5.1320781 5.7821406 5.3300781 6.2441406 C 5.5280781 6.7061406 5.7258281 7.1893594 5.9238281 7.6933594 C 6.1278281 8.1913594 6.3349219 8.7231094 6.5449219 9.2871094 C 6.7549219 9.8451096 6.9825156 10.447703 7.2285156 11.095703 L 6.5546875 11.095703 C 6.4406875 10.789703 6.3324687 10.496844 6.2304688 10.214844 C 6.1284688 9.9328436 6.0295937 9.6567187 5.9335938 9.3867188 L 2.9003906 9.3867188 C 2.7983906 9.6567187 2.69575 9.9328436 2.59375 10.214844 C 2.49175 10.496844 2.3872969 10.789703 2.2792969 11.095703 L 1.640625 11.095703 C 1.880625 10.447703 2.1044531 9.8451096 2.3144531 9.2871094 C 2.5244531 8.7231094 2.7297344 8.1913594 2.9277344 7.6933594 C 3.1317344 7.1893594 3.3312969 6.7061406 3.5292969 6.2441406 C 3.7272969 5.7821406 3.9381563 5.321375 4.1601562 4.859375 z M 4.4121094 5.5605469 C 4.1841094 6.0765469 3.9620938 6.6027187 3.7460938 7.1367188 C 3.5360937 7.6707188 3.3178438 8.2452812 3.0898438 8.8632812 L 5.7441406 8.8632812 C 5.5161406 8.2452812 5.294125 7.6707188 5.078125 7.1367188 C 4.862125 6.6027188 4.6401094 6.0765469 4.4121094 5.5605469 z M 7.9335938 6.4433594 L 11.119141 6.4433594 L 11.119141 6.9199219 C 10.981141 7.0759219 10.802078 7.2923594 10.580078 7.5683594 C 10.358078 7.8443594 10.121141 8.1521406 9.8691406 8.4941406 C 9.6171406 8.8301406 9.3670937 9.1846406 9.1210938 9.5566406 C 8.8750938 9.9226408 8.6586562 10.271563 8.4726562 10.601562 L 11.201172 10.601562 L 11.201172 11.095703 L 7.7988281 11.095703 L 7.7988281 10.673828 C 7.9548281 10.379828 8.147 10.055172 8.375 9.7011719 C 8.609 9.3471719 8.84775 8.99825 9.09375 8.65625 C 9.33975 8.30825 9.5804531 7.9855469 9.8144531 7.6855469 C 10.048453 7.3795469 10.246203 7.1295 10.408203 6.9375 L 7.9335938 6.9375 L 7.9335938 6.4433594 z M 13.03125 8.7539062 C 13.42515 8.7539062 13.722975 8.851875 13.921875 9.046875 C 14.120774 9.237975 14.21875 9.5044563 14.21875 9.8476562 C 14.21875 9.9997563 14.191319 10.14475 14.136719 10.28125 C 14.082119 10.41385 14.009615 10.543169 13.916016 10.667969 C 13.826316 10.792769 13.722469 10.912297 13.605469 11.029297 C 13.488469 11.146297 13.368947 11.263859 13.248047 11.380859 C 13.146647 11.478359 13.046719 11.578288 12.949219 11.679688 C 12.855619 11.777188 12.771359 11.877116 12.693359 11.978516 C 12.619259 12.076016 12.558519 12.172031 12.511719 12.269531 C 12.468819 12.363131 12.447266 12.457181 12.447266 12.550781 L 12.447266 12.5625 L 14.359375 12.5625 L 14.359375 12.896484 L 12.025391 12.896484 C 12.025391 12.888684 12.023398 12.874969 12.019531 12.855469 L 12.019531 12.755859 C 12.019531 12.572559 12.052841 12.402094 12.119141 12.246094 C 12.185441 12.086194 12.269694 11.937275 12.371094 11.796875 C 12.476394 11.656475 12.591997 11.525197 12.716797 11.404297 C 12.845497 11.283397 12.966984 11.165834 13.083984 11.052734 C 13.181484 10.959134 13.273575 10.869003 13.359375 10.783203 C 13.449075 10.693503 13.52745 10.603366 13.59375 10.509766 C 13.66005 10.416166 13.712953 10.316238 13.751953 10.210938 C 13.790953 10.105638 13.810547 9.9900344 13.810547 9.8652344 C 13.810547 9.5922344 13.736091 9.39825 13.587891 9.28125 C 13.443591 9.16035 13.259409 9.0996094 13.037109 9.0996094 C 12.912309 9.0996094 12.802578 9.1152844 12.705078 9.1464844 C 12.607578 9.1776844 12.521366 9.2149125 12.447266 9.2578125 C 12.377066 9.2968125 12.316325 9.3379594 12.265625 9.3808594 C 12.214925 9.4237594 12.177697 9.4570688 12.154297 9.4804688 L 11.955078 9.2167969 C 11.978478 9.1894969 12.019625 9.1503094 12.078125 9.0996094 C 12.140525 9.0450094 12.216941 8.9921062 12.306641 8.9414062 C 12.400241 8.8907063 12.508006 8.8476 12.628906 8.8125 C 12.749806 8.7735 12.88305 8.7539063 13.03125 8.7539062 z "
     id="path4" />
</svg>

<svg xmlns="http://www.w3.org/2000/svg" viewBox="0 0 16 16">
 <path d="m 1.6 0 c -0.886 0 -1.6 0.713 -1.6 1.6 l 0 12.801 c 0 0.886 0.713 1.6 1.6 1.6 l 12.801 0 c 0.886 0 1.6 -0.713 1.6 -1.6 l 0 -12.801 c 0 -0.886 -0.713 -1.6 -1.6 -1.6 l -12.801 0 z m 2.561 4.859 l 0.539 0 c 0.222 0.462 0.433 0.923 0.631 1.385 c 0.198 0.462 0.396 0.945 0.594 1.449 c 0.204 0.498 0.411 1.03 0.621 1.594 c 0.21 0.558 0.438 1.161 0.684 1.809 l -0.674 0 c -0.114 -0.306 -0.222 -0.599 -0.324 -0.881 c -0.102 -0.282 -0.201 -0.558 -0.297 -0.828 l -3.033 0 c -0.102 0.27 -0.205 0.546 -0.307 0.828 c -0.102 0.282 -0.206 0.575 -0.314 0.881 l -0.639 0 c 0.24 -0.648 0.464 -1.251 0.674 -1.809 c 0.21 -0.564 0.415 -1.096 0.613 -1.594 c 0.204 -0.504 0.404 -0.987 0.602 -1.449 c 0.198 -0.462 0.409 -0.923 0.631 -1.385 z m 0.252 0.701 c -0.228 0.516 -0.45 1.042 -0.666 1.576 c -0.21 0.534 -0.428 1.109 -0.656 1.727 l 2.654 0 c -0.228 -0.618 -0.45 -1.193 -0.666 -1.727 c -0.216 -0.534 -0.438 -1.06 -0.666 -1.576 z m 3.521 0.883 l 3.186 0 l 0 0.477 c -0.138 0.156 -0.317 0.372 -0.539 0.648 c -0.222 0.276 -0.459 0.584 -0.711 0.926 c -0.252 0.336 -0.502 0.691 -0.748 1.063 c -0.246 0.366 -0.462 0.715 -0.648 1.045 l 2.729 0 l 0 0.494 l -3.402 0 l 0 -0.422 c 0.156 -0.294 0.348 -0.619 0.576 -0.973 c 0.234 -0.354 0.473 -0.703 0.719 -1.045 c 0.246 -0.348 0.487 -0.671 0.721 -0.971 c 0.234 -0.306 0.432 -0.556 0.594 -0.748 l -2.475 0 l 0 -0.494 z m 5.098 2.311 c 0.394 0 0.692 0.098 0.891 0.293 c 0.199 0.191 0.297 0.458 0.297 0.801 c 0 0.152 -0.027 0.297 -0.082 0.434 c -0.055 0.133 -0.127 0.262 -0.221 0.387 c -0.09 0.125 -0.194 0.244 -0.311 0.361 c -0.117 0.117 -0.237 0.235 -0.357 0.352 c -0.101 0.098 -0.201 0.197 -0.299 0.299 c -0.094 0.098 -0.178 0.197 -0.256 0.299 c -0.074 0.097 -0.135 0.194 -0.182 0.291 c -0.043 0.094 -0.064 0.188 -0.064 0.281 l 0 0.012 l 1.912 0 l 0 0.334 l -2.334 0 c 0 -0.008 -0.002 -0.022 -0.006 -0.041 l 0 -0.1 c 0 -0.183 0.033 -0.354 0.1 -0.51 c 0.066 -0.16 0.151 -0.309 0.252 -0.449 c 0.105 -0.14 0.221 -0.272 0.346 -0.393 c 0.129 -0.121 0.25 -0.238 0.367 -0.352 c 0.098 -0.094 0.19 -0.184 0.275 -0.27 c 0.09 -0.09 0.168 -0.18 0.234 -0.273 c 0.066 -0.094 0.119 -0.194 0.158 -0.299 c 0.039 -0.105 0.059 -0.221 0.059 -0.346 c 0 -0.273 -0.074 -0.467 -0.223 -0.584 c -0.144 -0.121 -0.328 -0.182 -0.551 -0.182 c -0.125 0 -0.235 0.016 -0.332 0.047 c -0.098 0.031 -0.184 0.068 -0.258 0.111 c -0.07 0.039 -0.131 0.08 -0.182 0.123 c -0.051 0.043 -0.088 0.076 -0.111 0.1 l -0.199 -0.264 c 0.023 -0.027 0.065 -0.066 0.123 -0.117 c 0.062 -0.055 0.139 -0.108 0.229 -0.158 c 0.094 -0.051 0.201 -0.094 0.322 -0.129 c 0.121 -0.039 0.254 -0.059 0.402 -0.059 z" style="fill:#ececec;fill-opacity:1"/>
</svg>
